X:162
T:The Green Ship
O:England
M:4/4
A:Lancashire
B:Winder
K:Em
P:A
{dc}| B2e2 fgfe | B2e2 g4 | B2Bc d2d2 | cBce d4 | B2e2 fgfe B2e2 g3f gbag fagf | g2e2 e2 :|
P:B
dc| B2G2 G3A | B2G2 BdcB | c2A2 A3B | c2A2 cedc | B2G2 G3A | B2G2 g4 | gbag fagf | g2e2 e3 :|

